X: 15
T: Jefferson and Liberty
T: Gobby'O
S: Miller and Perron "New England Fiddler's Repertory" 1983
N: Adapted by Robert Bley-Vroman vroman@hawaii.edu February 1997
R: Jig
M: 6/8
L: 1/8
K: Am
P: A
|: B | c2A A^GA | E2A ABc | B2G GBc | dBG GAB | 
       c2A A^GA | E2A A2e | edc BAB | E2A A2 :|
P: B
|: c | A2B c2d | e2f g3 | e2f g2e | dBG G2E |
       A2B c2d | efg a3 | edc BAB | cAA A2 :|
